X:1
T:Title
%%score { 1 | 2 }
L:1/8
Q:1/4=72
M:2/4
K:Eb
V:1 treble nm="Grand Piano"
V:2 bass 
V:1
 GG/G/ GF | E/G/[GB]/[Gc]/ [GB][EG] | [DB]<[DB] [DA][DF] | G4 | GG/G/ GF | %5
w: J.~V.~Coombs * * * *|||||
 E/G/[GB]/[Gc]/ [GB][EG] | [DB]<[DB] [DA][DF] | E4 | [GB]<[GB] [Ac][GB] | [Ge]4 | [GB]>[GB] GE | %11
w: ||||||
 F4 | GG/G/ GF | E/G/[GB]/[Gc]/ [GB][EG] | [DB]<[DB] [DA][DF] |[M:6/4] .E6 z6 |] %16
w: |||||
V:2
 [E,B,E][E,B,E]/[E,B,E]/ [E,B,E][E,A,E] | [E,G,]/[E,B,E]/[E,E]/[E,E]/ [E,E][E,B,] | %2
 [B,,B,]<[B,,B,] [B,,B,][B,,B,] | [E,B,E]4 | [E,B,E][E,B,E]/[E,B,E]/ [E,B,E][E,A,E] | %5
 [E,G,]/[E,B,E]/[E,E]/[E,E]/ [E,E][E,B,] | [B,,B,]<[B,,B,] [B,,B,][B,,B,] | [E,G,]4 | %8
 [E,E]<[E,E] [E,E][E,E] | [E,B,]4 | [E,B,]>[E,B,] [E,B,E][G,B,] | [B,D]4 | %12
 [E,B,E][E,B,E]/[E,B,E]/ [E,B,E][E,A,E] | [E,G,]/[E,B,E]/[E,E]/[E,E]/ [E,E][E,B,] | %14
 [B,,B,]<[B,,B,] [B,,B,][B,,B,] |[M:6/4] .[E,G,]6 z6 |] %16

